X: 15515
T: Glenside, The
R: polka
M: 2/4
K: Edorian
|:B2 BA|FA D2|BE BA|B/c/d ed|
B2 BA|FA DE|F/E/D AF|E2 E2:|
|:Be e>f|ed BA|Be e>f|ed Bc|
d>e dB|AF DE|F/E/D AF|E2 E2:|

